X:10
T:Honorable Mr. Ramsay Maule's Reel
C:R. Petrie
S:Petrie's Second Collection of Strathspey Reels and Country Dances &c.
Z:Steve Wyrick , 6/5/04
N:Petrie's Second Collection, page 4
L:1/8
M:C|
R:Reel
K:Gm
 d|BG G/G/G DGBd| cAFc   AFcA|BG G/G/G DGBd|cAFA  BGGd|
   BG G/G/G DGBd| cAFc   AFcA|BGBb     AFAc|dBcA  BGG||
^f|(g^fg)d  Bdgd|.f(dcB) AfAF|(g^fg)d  Bdgd|fcAd BGG^f|
   (g^fg).d Bdgd|(fdcB)  AFcA|BGcA     dBec|dg^fa gGG|]
